X: 4414
T: Bonfire Night
R: hornpipe
M: 4/4
K: Dmajor
ag|fadf AdFA|DFAd f2 ef|gafg efde|cdec A2 ag|
fadf AdFA|DFAd faef|gabg edcd|(3efe dc dDFE|
DEFA fedc|BGBd gfed|cAce agfe|defd AGFE|
DEFA fedc|BGBd gfed|caga gecd|(3efe dc d2 z2||

